X:1
T:Zum Liebchen
T:Vinzenz Lachner
T:Zum Liebchen
T:CPDL - Creative Commons Attribution Non Commercial 3.0
T:CPDL - Creative Commons Attribution Non Commercial 3.0
T:CPDL - Creative Commons Attribution Non Commercial 3.0
T:CPDL - Creative Commons Attribution Non Commercial 3.0
C:Vinzenz Lachner
Z:CPDL - Creative Commons Attribution Non Commercial 3.0
%%score [ 1 2 ( 3 4 ) ]
L:1/8
Q:1/4=120
M:6/8
K:G
V:1 treble-8 nm="Tenor\n1"
V:2 treble-8 nm="Tenor\n2"
V:3 bass nm="Bass"
V:4 bass 
V:1
!mf!"^Lustig" B | B>AG dcB | g2 d d3- | d6- | d3- d2!mf! B | B>AG dcB | g2 d d3- | d6- | d3- d2 z | %9
w: 1.~Die|Son- ne, die schien * so|lus- tig d'raus‘,|_|* * da|ging ich zu mei- * nem|Lieb- chen aus,|_||
w: 2.~Und|als ich kam in _ den|grü- nen Wald,|_|* * da|san- gen die Vög- * lein|man- nig- falt,|_||
w: 3.~Und|als ich kam an _ den|kla- ren Bach,|_|* * da|lie- fen und rie- fen die|Wellen mir nach,|_||
w: 4.~Und|als ich sprach, das _ kann|nicht wohl sein,|_|* * ich|ge- he zu der _ Herz-|liebs- ten mein,|_||
w: 5.~Nun|sitz‘ ich in küh- * ler|Laube bei ihr,|_|* * und|Wel- len und Vög- * lein|singen mit mir,|_||
 z2!f! A !^!e3 | z2 A !breath!!^!f2 f | (!>!f2 g) (e2 ^c) | d3- d2 z | z2!pp! A e2 z | %14
w: tra- la,|tra- li, wie|schön _ ist _|sie! _|tra- li,|
w: „ „|„ „ wie|schön _ ist _|sie! _|„ „|
w: „ „|„ „ bleib‘|hie, _ bleib‘ _|hie! _|„ „|
w: „ „|„ „ wie|flo- * gen _|sie! _|„ „|
w: „ „|„ „ wie|schön _ ist _|sie! _|„ „|
 z2 A !breath!f2!mf! f | (a2 g)!>(! (f2 e) | d3-!>)! !breath!d2!pp! d | d-dd d2 d | %18
w: tra- la, bald|bin _ ich _|da, _ bei|ihr in der küh- len|
w: „ „ wie|schön _ ist‘s _|da, _ bei|uns in dem schö- nen|
w: „ „ wie|schön _ ist's _|da, _ bei|uns un- ter dunk- len|
w: „ „ wie|lie- * fen sie|da, _ mir|nach _ zu mei- ner|
w: „ „ viel|schö- * ner ist‘s|da, _ als~im|Wal- de und un- ter|
 ^d3 !breath!e2 e |!<(! f-f!<)!f f2 f | f3 !breath!g2!f! G | !>!g3 !>!g3 | !^!g6- | %23
w: Lau- be, bei|ihr in der küh- len|Lau- be, bei|ihr, bei|ihr!|
w: Wal- de, bei|uns in dem schö- nen|Wal- de, bei|uns, bei|uns!|
w: Er- len, bei|uns un- ter dunk- len|Er- len, bei|uns, bei|uns!|
w: Liebs- ten, mir|nach _ zu mei- ner|Liebs- ten, mir|nach, mir|nach!|
w: Er- len, als~im|Wal- de und un- ter|Er- len, tra-|li, tra-|la!|
 g!p!!wedge!e!wedge!c!<(! Ace | d3!<)! !breath!f2 f | g3- !fermata!g !fermata!z |] %26
w: _ In der küh- * len|Lau- be, bei|ihr! _|
w: _ In dem schö- * nen|Wal- de, bei|uns! _|
w: _ Un- ter dunk- * len|Er- len, bei|uns! _|
w: _ Ja, zu mei- * ner|Liebs- ten, mir|nach! _|
w: _ Ja, viel schö- * ner,|schö- ner ist‘s|da! _|
V:2
 z | z6 | z3 z2!mf! D | G>AB dcB | B2 c A2 z | z6 | z3 z2!mf! D | G>AB dcB | B2 c A2!f! A | %9
w: ||1.~Die|Son- ne, die schien * so|lus- tig d'raus',||da|ging ich zu mei- * nem|Lieb- chen aus, tra-|
w: ||2.~Und|als ich kam in _ den|grü- nen Wald,||da|san- gen die Vög- * lein|man- nig- falt, „|
w: ||3.~Und|als ich kam an _ den|kla- ren Bach,||da|lie- fen und rie- fen die|Wellen mir nach, „|
w: ||4.~Und|als ich sprach, das _ kann|nicht wohl sein,||ich|ge- he zu der _ Herz-|liebs- ten mein, „|
w: ||5.~Nun|sitz‘ ich in küh- * ler|Laube bei ihr,||und|Wel- len und Vög- * lein|singen mit mir, „|
 A3- !breath!A2 A | A3- !breath!A2 d | !>!d3 (B2 A) | A3- !breath!A2!pp! A | A3- !breath!A2 A | %14
w: la, _ tra-|li, _ wie|schön ist _|sie! _ tra-|li, _ tra-|
w: „ * „|„ * wie|schön ist _|sie! _ „|„ * „|
w: „ * „|„ * bleib‘|hie, bleib‘ _|hie! _ „|„ * „|
w: „ * „|„ * wie|flo- gen _|sie! _ „|„ * „|
w: „ * „|„ * wie|schön ist _|sie! _ „|„ * „|
 A3- !breath!A2!mf! d | (^c2 d)!>(! c2- c | A3-!>)! !breath!A2!pp! =c | B-BB B2 B | %18
w: la, _ bald|bin _ ich _|da, _ bei|ihr in der küh- len|
w: „ * wie|schön _ ist‘s _|da, _ bei|uns in dem schö- nen|
w: „ * wie|schön _ ist's _|da, _ bei|uns un- ter dunk- len|
w: „ * wie|lie- * fen sie|da, _ mir|nach _ zu mei- ner|
w: „ * viel|schö- * ner ist‘s|da, _ als~im|Wal- de und un- ter|
 A3 !breath!G2 e |!<(! e-e!<)!e =d2 c | c3 B2 z | z3!f! !>!B3 | !^!c6- | %23
w: Lau- be, bei|ihr in der küh- len|Lau- be,|bei|ihr!|
w: Wal- de, bei|uns in dem schö- nen|Wal- de,|bei|uns!|
w: Er- len, bei|uns un- ter dunk- len|Er- len,|bei|uns!|
w: Liebs- ten, mir|nach _ zu mei ner|Liebs- ten,|mir|nach!|
w: Er- len, als~im|Wal- de und un- ter|Er- len,|tra-|la!|
 c!p!!wedge!G!wedge!G!<(! G2 A | B3!<)! !breath!c2 c | B3- !fermata!B !fermata!z |] %26
w: _ In der küh- len|Lau- be, bei|ihr! _|
w: _ In dem schö- nen|Wal- de, bei|uns! _|
w: _ Un- ter dunk- len|Er- len, bei|uns! _|
w: _ Ja, zu mei- ner|Liebs- ten, mir|nach! _|
w: _ Ja, viel schö- ner,|schö- ner ist‘s|da! _|
V:3
 z | z6 | z3 z2!mf! D, | D,>F,G, B,A,G, | ^G,2 A, F,2 z | z6 | z3 z2!mf! D, | D,>F,G, B,A,G, | %8
w: ||||||||
 ^G,2 A, F,2 z | z2!f! =G, !^!G,3 | z2 F, !breath!!^!F,2 A, | (!>!^A,2 B,) (G,2 E,) | F,3- F,2 z | %13
w: |||||
 z2!pp! G, G,3 | z2 F, !breath!F,2!mf! A, | (A,2 B,)!>(! (A,2 G,) | F,3-!>)! !breath!F,2!pp! A, | %17
w: tra- li,|tra- la, *|||
 G,-G,G, G,2 G, | F,3 !breath!E,2 C |!<(! C-C!<)!C B,2 A, | A,3 G,2 z | z3!f! !>!=F,3 | !^!E,6- | %23
w: ||||||
 E,!p!!wedge!E,!wedge!E,!<(! E,2 G, | G,3!<)! !breath!A,2 A, | G,3- !fermata!G, !fermata!z |] %26
w: |||
V:4
 x | x6 | x3 x2 D, | B,,>D,G, G,2 G,, | D,2 D, D,2 x | x6 | x3 x2 D, | B,,>D,G, G,2 G,, | %8
w: ||||||||
 D,2 D, D,2 x | x2 ^C, C,3 | x2 D, D,2 D, | G,,3 A,,3 | D,3- D,2 x | x2 ^C, C,3 | x2 D, D,2 D, | %15
w: |tra- la,|tra- li, *|||||
 A,,3 A,,2- A,, | D,3- D,2 F, | G,-G,G, B,,2 B,, | C,3 C,2 C, | C,-C,C, D,2 D, | ^D,3 E,2 x | %21
w: ||||||
 x3 G,,3 | C,6- | C,C,C, C,2 C, | C,3 C,2 C, | G,,3- G,, x |] %26
w: |||||

